src/pos-icons/newspaper-variant.svg

<svg height="24" viewBox="0 0 24 24" width="24" xmlns="http://www.w3.org/2000/svg"><path d="m2 4v14s0 2 2 2h16s2 0 2-2v-14zm7 9h-4v-6h4zm10 0h-8v-2h8zm0-4h-8v-2h8z"/></svg>

<?xml version="1.0" encoding="UTF-8"?><!DOCTYPE svg PUBLIC "-//W3C//DTD SVG 1.1//EN" "http://www.w3.org/Graphics/SVG/1.1/DTD/svg11.dtd"><svg xmlns="http://www.w3.org/2000/svg" xmlns:xlink="http://www.w3.org/1999/xlink" version="1.1" id="mdi-newspaper-variant" width="24" height="24" viewBox="0 0 24 24"><path d="M2 4V18C2 18 2 20 4 20H20C20 20 22 20 22 18V4H2M9 13H5V7H9V13M19 13H11V11H19V13M19 9H11V7H19V9Z" /></svg>
